X: 1713
T: CORNEY DREW'S HORNPIPE
M:2/4
L:1/16
B:O'NEILL'S 1713
N:"collected by Hartnett"
Z:Transcribed by A.LEE WORMAN
K:G
(3D-E-F|G2GF GABd|e2de gedB|edef gedB|AGAB AcBA|
G2GF GABd|e2de gedB|egde BdAB|G2GG G2:|
|:(3d-e-f|g2fg a2ga|bgaf gfed|cBcd agfe|d^cde d2(3d-e-f |
g2fg a2ga|bgaf gfed|(3e-f-g de BdAB|G2GG G2:|


